flaticon/emoticons/happy-12.svg

<svg xmlns="http://www.w3.org/2000/svg" width="32" height="32" viewBox="0 0 24 24">
    <path d="M 16.679688 16.269531 L 7.730469 16.269531 C 7.503906 16.269531 7.320312 16.453125 7.320312 16.679688 C 7.320312 19.371094 9.511719 21.558594 12.203125 21.558594 C 14.894531 21.558594 17.085938 19.371094 17.085938 16.679688 C 17.085938 16.453125 16.902344 16.269531 16.679688 16.269531 Z M 15.921875 18.316406 C 15.902344 18.3125 15.886719 18.304688 15.863281 18.304688 L 14.238281 18.304688 L 14.238281 17.085938 L 16.25 17.085938 C 16.207031 17.519531 16.09375 17.933594 15.921875 18.316406 Z M 8.484375 18.316406 C 8.3125 17.933594 8.199219 17.519531 8.15625 17.085938 L 10.167969 17.085938 L 10.167969 18.304688 L 8.542969 18.304688 C 8.523438 18.304688 8.503906 18.3125 8.484375 18.316406 Z M 10.984375 17.085938 L 13.421875 17.085938 L 13.421875 18.304688 L 10.984375 18.304688 Z M 8.957031 19.117188 L 10.167969 19.117188 L 10.167969 20.195312 C 9.695312 19.921875 9.285156 19.554688 8.957031 19.117188 Z M 10.984375 20.558594 L 10.984375 19.117188 L 13.421875 19.117188 L 13.421875 20.558594 C 13.039062 20.679688 12.628906 20.746094 12.203125 20.746094 C 11.777344 20.746094 11.367188 20.679688 10.984375 20.558594 Z M 14.238281 20.195312 L 14.238281 19.117188 L 15.449219 19.117188 C 15.121094 19.554688 14.710938 19.921875 14.238281 20.195312 Z M 14.238281 20.195312"/>
    <path d="M 12 0 C 6.054688 0 1.21875 4.835938 1.21875 10.78125 L 1.21875 20.746094 C 1.21875 21.867188 2.132812 22.78125 3.253906 22.78125 L 5.917969 22.78125 C 5.9375 22.789062 5.957031 22.796875 5.976562 22.804688 C 7.402344 23.476562 9.121094 23.878906 11.078125 23.976562 C 11.121094 23.976562 11.164062 23.980469 11.210938 23.980469 C 11.46875 23.992188 11.730469 24 12 24 C 12.269531 24 12.53125 23.992188 12.792969 23.980469 C 12.835938 23.980469 12.878906 23.976562 12.921875 23.976562 C 14.878906 23.878906 16.597656 23.476562 18.023438 22.804688 C 18.042969 22.796875 18.0625 22.789062 18.082031 22.777344 L 20.746094 22.777344 C 21.867188 22.777344 22.78125 21.867188 22.78125 20.746094 L 22.78125 10.78125 C 22.78125 4.835938 17.945312 0 12 0 Z M 2.035156 10.78125 C 2.035156 5.285156 6.503906 0.8125 12 0.8125 C 17.496094 0.8125 21.964844 5.285156 21.964844 10.78125 L 21.964844 12.164062 C 21.671875 12.191406 21.40625 12.203125 21.152344 12.203125 C 16.921875 12.203125 13.191406 9.21875 11.875 4.777344 L 11.785156 4.472656 L 11.464844 4.488281 C 7.175781 4.699219 3.578125 7.390625 2.035156 11.136719 Z M 17.894531 21.964844 L 17.8125 22.007812 C 16.660156 22.566406 15.289062 22.929688 13.777344 23.089844 C 13.667969 23.101562 13.558594 23.113281 13.445312 23.125 C 13.285156 23.136719 13.125 23.148438 12.960938 23.15625 C 12.648438 23.175781 12.328125 23.1875 12 23.1875 C 11.671875 23.1875 11.351562 23.175781 11.039062 23.15625 C 10.875 23.148438 10.714844 23.136719 10.554688 23.121094 C 10.441406 23.113281 10.332031 23.101562 10.222656 23.089844 C 8.710938 22.929688 7.339844 22.566406 6.1875 22.007812 L 6.105469 21.964844 L 6.066406 21.964844 C 3.476562 20.65625 2.035156 18.34375 2.035156 15.253906 C 2.035156 10.039062 6.03125 5.734375 11.191406 5.320312 C 12.691406 9.9375 16.65625 13.015625 21.152344 13.015625 C 21.332031 13.015625 21.515625 13.011719 21.707031 13 C 21.878906 13.738281 21.964844 14.496094 21.964844 15.253906 C 21.964844 18.34375 20.523438 20.65625 17.933594 21.964844 Z M 3.253906 21.964844 C 2.582031 21.964844 2.035156 21.417969 2.035156 20.746094 L 2.035156 19.027344 C 2.597656 20.195312 3.441406 21.1875 4.535156 21.964844 Z M 21.964844 20.746094 C 21.964844 21.417969 21.417969 21.964844 20.746094 21.964844 L 19.464844 21.964844 C 20.558594 21.1875 21.402344 20.195312 21.964844 19.027344 Z M 21.964844 20.746094"/>
    <path d="M 9.476562 12.492188 C 9.554688 12.570312 9.660156 12.609375 9.761719 12.609375 C 9.867188 12.609375 9.972656 12.570312 10.050781 12.492188 C 10.210938 12.332031 10.210938 12.074219 10.050781 11.914062 C 8.941406 10.804688 7.132812 10.804688 6.023438 11.914062 C 5.863281 12.074219 5.863281 12.332031 6.023438 12.492188 C 6.183594 12.648438 6.441406 12.648438 6.597656 12.492188 C 7.390625 11.699219 8.683594 11.699219 9.476562 12.492188 Z M 9.476562 12.492188"/>
</svg>

<svg xmlns="http://www.w3.org/2000/svg" width="32" height="32" viewBox="0 0 24 24">
    <path d="M16.68 16.27H7.73a.41.41 0 0 0-.41.41 4.886 4.886 0 0 0 4.883 4.879 4.886 4.886 0 0 0 4.883-4.88.41.41 0 0 0-.406-.41zm-.758 2.046c-.02-.003-.035-.011-.059-.011h-1.625v-1.22h2.012a3.953 3.953 0 0 1-.328 1.231zm-7.438 0a3.953 3.953 0 0 1-.328-1.23h2.012v1.219H8.543c-.02 0-.04.008-.059.011zm2.5-1.23h2.438v1.219h-2.438zm-2.027 2.031h1.211v1.078a4.049 4.049 0 0 1-1.211-1.078zm2.027 1.442v-1.442h2.438v1.442a4.038 4.038 0 0 1-2.438 0zm3.254-.364v-1.078h1.211a4.049 4.049 0 0 1-1.21 1.078zm0 0"/>
    <path d="M12 0C6.055 0 1.219 4.836 1.219 10.781v9.965c0 1.121.914 2.035 2.035 2.035h2.664l.059.024c1.425.672 3.144 1.074 5.101 1.172.043 0 .086.003.133.003.258.012.52.02.789.02.27 0 .531-.008.793-.02l.129-.003c1.957-.098 3.676-.5 5.101-1.172.02-.008.04-.016.059-.028h2.664c1.121 0 2.035-.91 2.035-2.03V10.78C22.781 4.836 17.945 0 12 0zM2.035 10.781C2.035 5.285 6.504.812 12 .812c5.496 0 9.965 4.473 9.965 9.97v1.382c-.293.027-.559.04-.813.04-4.23 0-7.96-2.985-9.277-7.427l-.09-.304-.32.015a10.76 10.76 0 0 0-9.43 6.649zm15.86 11.184l-.082.043c-1.153.558-2.524.922-4.036 1.082l-.332.035c-.16.012-.32.023-.484.031a15.386 15.386 0 0 1-2.406-.035c-.114-.008-.223-.02-.332-.031-1.512-.16-2.883-.524-4.036-1.082l-.082-.043h-.039c-2.59-1.309-4.03-3.621-4.03-6.711A9.953 9.953 0 0 1 11.19 5.32c1.5 4.617 5.465 7.696 9.961 7.696.18 0 .364-.004.555-.016a9.95 9.95 0 0 1 .258 2.254c0 3.09-1.442 5.402-4.031 6.71zm-14.641 0a1.22 1.22 0 0 1-1.219-1.219v-1.719a7.663 7.663 0 0 0 2.5 2.938zm18.71-1.219a1.22 1.22 0 0 1-1.218 1.219h-1.281a7.663 7.663 0 0 0 2.5-2.938zm0 0"/>
    <path d="M9.477 12.492a.408.408 0 0 0 .574 0 .408.408 0 0 0 0-.578 2.853 2.853 0 0 0-4.028 0 .408.408 0 0 0 .575.578 2.04 2.04 0 0 1 2.879 0zm0 0"/>
</svg>
